public/ember-cli-visualeditor/styles/themes/apex/images/icons/listNumbered-ltr.svg

<?xml version="1.0" encoding="utf-8"?>
<svg xmlns="http://www.w3.org/2000/svg" width="24" height="24" viewBox="0 0 24 24">
    <g id="number-list-ltr">
        <path id="bottom_dot" d="M3 16v1h1.993l.03 1h-1.023v1h1v1h-2v1h2.023l.977-1.002v-1l-.955-.531.955-.5v-.969l-1.007-.998z"/>
        <path id="middle_dot" d="M3 9v1h2.117l-2.117 2.187v1.811l3-.062v-.936h-2.118l2.118-2.188v-1.032l-.668-.78z"/>
        <path id="top_dot" d="M4.993 2h-.648l-1.327 1.391.031.609h1.025l-.068 2h-1.006v1h3v-1h-1.037z"/>
        <path id="bottom_line" d="M20.002 17h-11.002c-.553 0-1 .447-1 1v1c0 .553.447 1 1 1h11.002c.551 0 .998-.447.998-1v-1c0-.553-.447-1-.998-1z"/>
        <path id="middle_line" d="M20.002 10h-11.002c-.553 0-1 .447-1 1v1c0 .553.447 1 1 1h11.002c.551 0 .998-.447.998-1v-1c0-.553-.447-1-.998-1z"/>
        <path id="top_line" d="M20.002 3h-11.002c-.553 0-1 .447-1 1v1c0 .553.447 1 1 1h11.002c.551 0 .998-.447.998-1v-1c0-.553-.447-1-.998-1z"/>
    </g>
</svg>

<?xml version="1.0" encoding="utf-8"?>
<svg xmlns="http://www.w3.org/2000/svg" width="24" height="24" viewBox="0 0 24 24">
    <g id="number-list-ltr">
        <path id="bottom_dot" d="M3 16v1h1.993l.03 1H4v1h1v1H3v1h2.023L6 19.998v-1l-.955-.53.955-.5v-.97L4.993 16z"/>
        <path id="middle_dot" d="M3 9v1h2.117L3 12.187v1.81l3-.06V13H3.882L6 10.812V9.78L5.332 9z"/>
        <path id="top_dot" d="M4.993 2h-.648L3.018 3.39l.03.61h1.026l-.068 2H3v1h3V6H4.963z"/>
        <path id="bottom_line" d="M20.002 17H9c-.553 0-1 .447-1 1v1c0 .553.447 1 1 1h11.002c.55 0 .998-.447.998-1v-1c0-.553-.447-1-.998-1z"/>
        <path id="middle_line" d="M20.002 10H9c-.553 0-1 .447-1 1v1c0 .553.447 1 1 1h11.002c.55 0 .998-.447.998-1v-1c0-.553-.447-1-.998-1z"/>
        <path id="top_line" d="M20.002 3H9c-.553 0-1 .447-1 1v1c0 .553.447 1 1 1h11.002c.55 0 .998-.447.998-1V4c0-.553-.447-1-.998-1z"/>
    </g>
</svg>
